packages/foundations/assets/icons/functional/images/transportation/electric_scooter_24_inverted.svg

<svg width="24" height="24" viewBox="0 0 24 24" fill="none" xmlns="http://www.w3.org/2000/svg">
<g clip-path="url(#clip0_2214_6798)">
<path fill-rule="evenodd" clip-rule="evenodd" d="M18.8351 3.34227L16.8149 3.74599C16.1378 3.88127 15.6796 4.50182 15.7335 5.17587L16.8329 11.4191C15.2832 12.4902 14.2842 13.4921 13.8371 14.4733C13.4863 15.2432 13.2703 16.0784 13.1879 16.9753L7.72124 16.9762C7.35982 15.817 6.27831 14.9758 4.99998 14.9758C3.42631 14.9758 2.14997 16.2518 2.14997 17.8258C2.14997 19.3998 3.42631 20.6758 4.99998 20.6758C6.27794 20.6758 7.3592 19.8351 7.72092 18.6764L13.9996 18.6758C14.469 18.6758 14.8496 18.2952 14.8496 17.8258C14.8496 16.8378 15.0288 15.9579 15.3841 15.1782C15.629 14.6407 16.2242 13.997 17.1703 13.2742L17.5516 15.3708C16.7127 15.8668 16.15 16.7806 16.15 17.8258C16.15 19.3998 17.4263 20.6758 19 20.6758C20.5742 20.6758 21.85 19.4 21.85 17.8258C21.85 16.3224 20.6865 15.0913 19.2107 14.9835L17.486 5.34579L19.1683 5.00931C19.5932 4.9244 19.9485 4.46779 19.8352 4.00923C19.7219 3.55068 19.3269 3.24487 18.8351 3.34227ZM19 16.6758C19.6353 16.6758 20.15 17.1904 20.15 17.8258C20.15 18.4612 19.6353 18.9758 19 18.9758C18.3651 18.9758 17.85 18.4608 17.85 17.8258C17.85 17.1908 18.3651 16.6758 19 16.6758ZM4.99998 16.6758C5.63533 16.6758 6.14997 17.1904 6.14997 17.8258C6.14997 18.4612 5.63533 18.9758 4.99998 18.9758C4.36509 18.9758 3.84998 18.4608 3.84998 17.8258C3.84998 17.1908 4.36509 16.6758 4.99998 16.6758ZM3.99977 10.9758C3.53033 10.9758 3.14977 11.3564 3.14977 11.8258C3.14977 12.2953 3.53033 12.6758 3.99977 12.6758C5.48967 12.6758 6.77724 13.3955 7.26088 14.246C7.49293 14.6541 8.01186 14.7968 8.41994 14.5647C8.82802 14.3327 8.97072 13.8137 8.73867 13.4057C7.94715 12.0137 6.09017 10.9758 3.99977 10.9758Z" fill="#1A1C1F"/>
</g>
<defs>
<clipPath id="clip0_2214_6798">
<rect width="24" height="24" fill="white"/>
</clipPath>
</defs>
</svg>

<svg xmlns="http://www.w3.org/2000/svg" width="24" height="24" fill="none"><g clip-path="url(#a)"><path fill="#1A1C1F" fill-rule="evenodd" d="m18.835 3.342-2.02.404a1.35 1.35 0 0 0-1.082 1.43l1.1 6.243c-1.55 1.071-2.549 2.073-2.996 3.054a7.7 7.7 0 0 0-.65 2.502l-5.466.001a2.85 2.85 0 1 0 0 1.7H14c.469 0 .85-.38.85-.85q0-1.48.534-2.648c.245-.537.84-1.181 1.786-1.904l.382 2.097a2.85 2.85 0 1 0 1.66-.387l-1.726-9.638 1.682-.337c.425-.085.78-.541.667-1s-.508-.764-1-.667M19 16.676a1.15 1.15 0 1 1 0 2.3 1.15 1.15 0 0 1 0-2.3m-14 0a1.15 1.15 0 1 1 0 2.3 1.15 1.15 0 0 1 0-2.3m-1-5.7a.85.85 0 0 0 0 1.7c1.49 0 2.777.72 3.26 1.57a.85.85 0 1 0 1.479-.84c-.792-1.392-2.649-2.43-4.74-2.43" clip-rule="evenodd"/></g><defs><clipPath id="a"><path fill="#fff" d="M0 0h24v24H0z"/></clipPath></defs></svg>
